obs_modules/data/obs-plugins/obs-filters/LUTs/original.cube
LUT_1D_SIZE 2
0 0 0
1 1 1
